!!!!SEGMENT: pl-kk--kk-i-513--001_haser-august-ferdinand--miserere-miserere-mei.krn
!!!cenid: 17xx:1841
!!!COM: Häser, August Ferdinand
!!!COM-rismid: pe37240
!!!CDT: 1779/10/15-1844/11/01
!!!CNT: German
!!!OPR: Miserere
!!!OTL: Miserere mei
!!!OMV: 001
!!!PDT:
!!!AGN: Sacred
!!!SMS-siglum: PL-Kk
!!!SMS-shelfmark: Kk.I.513
!!!SMS-shelfwork: 001-001 M
!!!SMS-variant:
!!!SMS-altvar:
!!!NIFC-rismid: 1001138459
!!!URL-scan: http://repozytorium.nifc.pl/skany/pl-kk-nut--i-513
!!!ONB-nifc:
**kern	**kern	**kern	**text	**dynam	**kern	**text	**dynam	**kern	**text	**dynam	**kern	**text	**dynam
*part6	*part5	*part4	*part4	*part4	*part3	*part3	*part3	*part2	*part2	*part2	*part1	*part1	*part1
*staff6	*staff5	*staff4	*staff4	*	*staff3	*staff3	*	*staff2	*staff2	*	*staff1	*staff1	*
*Iempty	*Iempty	*Ibass	*	*	*Itenor	*	*	*Ialto	*	*	*Isoprn	*	*
*	*	*I"Basso.	*	*	*I"Tenore.	*	*	*I"Alto	*	*	*I"Soprano.	*	*
*	*I'org	*I'B	*	*	*I'T	*	*	*I'A	*	*	*I'S	*	*
*clefF4	*clefG2	*clefF4	*	*	*clefC4	*	*	*clefG2	*	*	*clefG2	*	*
*k[]	*k[]	*k[]	*	*	*k[]	*	*	*k[]	*	*	*k[]	*	*
*a:	*a:	*a:	*	*	*a:	*	*	*a:	*	*	*a:	*	*
*M4/4	*M4/4	*M4/4	*	*	*M4/4	*	*	*M4/4	*	*	*M4/4	*	*
*met(c)	*met(c)	*met(c)	*	*	*met(c)	*	*	*met(c)	*	*	*met(c)	*	*
=1	=1	=1	=1	=1	=1	=1	=1	=1	=1	=1	=1	=1	=1
*2\right	*2\right	*	*	*	*2\right	*	*	*	*	*	*2\right	*	*
!	!	!	!	!	!LO:TX:t=P:problem:all/right	!	!	!	!	!	!LO:TX:a:t=Tutti	!	!
!	!LO:TX:t=P:problem:partia organów na 4 ręce odnosi się do zupełnie innego utworu	!LO:TX:rj:a:t=Largo	!	!	!LO:TX:rj:a:t=Largo	!	!	!LO:TX:a:t=Tutti	!	!	!LO:TX:rj:a:t=Largo.	!	!
!	!LO:TX:t=P:problem:all2\right	!LO:TX:a:t=Tutti.	!	!LO:DY:rj:b	!LO:TX:a:t=Tutti	!	!LO:DY:rj:a	!LO:TX:rj:a:t=Largo	!	!LO:DY:b:rj	!LO:TX:t=P:problem:all\right	!	!LO:DY:rj:b
2c\ 2A\	2.ee\ 2.a\	2AA/	Mi-	p	2c\	Mi-	pp	2.a/	Mi-	p	2ee\	Mi-	p
!	!	!LO:TX:b:t=h	!	!	!	!	!	!	!	!	!	!	!
2d\ 2B\	.	2BB/	-se-	.	2d\	-se-	.	.	.	.	2ee\	-se-	.
.	4g#X/	.	.	.	.	.	.	4g#X/	-se-	.	.	.	.
=2	=2	=2	=2	=2	=2	=2	=2	=2	=2	=2	=2	=2	=2
*	*^	*	*	*	*	*	*	*	*	*	*	*	*
2C\	2.ee\	2a\ 2e\	2C/	-re-	.	2e\	-re-	.	2a/	-re-	.	2.ee\	-re-	.
!	!	!	!	!	!	!	!	!LO:HP:b	!	!	!	!	!	!
2D\	.	2a\ 2f\	2D/	-re	.	2f\	-re	<	2a^>/	-re	.	.	.	.
.	4dd\	.	.	.	.	.	.	[	.	.	.	4dd\	-re	.
=3	=3	=3	=3	=3	=3	=3	=3	=3	=3	=3	=3	=3	=3	=3
*^	*	*	*	*	*	*	*	*	*	*	*	*	*	*
!	!	!	!	!	!	!LO:DY:a	!	!	!LO:DY:rj:a	!	!	!LO:DY:a:rj	!	!	!
2.e/	2E\	1cc/	1a\	1E\	me-	ff	(2.e\	me-	[ sfz	1a/	me-	sf	(1cc\	me-	.
.	2ryy	.	.	.	.	.	.	.	.	.	.	.	.	.	.
4d#X/	.	.	.	.	.	.	4d#X\	.	.	.	.	.	.	.	.
*v	*v	*	*	*	*	*	*	*	*	*	*	*	*	*	*
*	*v	*v	*	*	*	*	*	*	*	*	*	*	*	*
=4	=4	=4	=4	=4	=4	=4	=4	=4	=4	=4	=4	=4	=4
*	*	*2\right	*	*	*	*	*	*	*	*	*	*	*
!	!	!LO:TX:t=P:problem:all\right	!	!	!	!	!	!	!	!	!	!	!
2e\ 2E\	2b\ 2g#X\	2E\	-i	.	2e\)	-i	.	2g#X/	-i	.	2b\)	-i	.
2r	2r	2r	.	.	2r	.	.	2r	.	.	2r	.	.
=5	=5	=5	=5	=5	=5	=5	=5	=5	=5	=5	=5	=5	=5
!	!	!	!	!LO:DY:rj:a	!	!	!LO:DY:rj:a	!	!	!LO:DY:a:rj	!	!	!LO:DY:b:rj
1c\ 1C\	1ee\ 1gn\	1c\	De-	ff	[2c\	De-	ff	1gn/	De-	ff	(1ee\	De-	f
.	.	.	.	.	2c\]	-[[us]]-	.	.	.	.	.	.	.
!LO:LB:g=original	!	!	!	!	!	!	!	!	!	!	!	!	!
=6	=6	=6	=6	=6	=6	=6	=6	=6	=6	=6	=6	=6	=6
!	!LO:N:vis=4	!	!	!	!	!	!	!	!	!	!	!	!
2d\ 2B\	2ff\ 2g\	2B\	-us,	.	2d\	-us	.	2g/	-us	.	2ff\)	-us	.
2r	2r	2r	.	.	2r	.	.	2r	.	.	2r	.	.
=7	=7	=7	=7	=7	=7	=7	=7	=7	=7	=7	=7	=7	=7
!	!	!	!	!LO:DY:rj:a	!	!	!LO:DY:rj:a	!	!	!LO:DY:a	!	!	!LO:DY:rj:b
1c\ 1C\	1ee\ 1g\	1c\	De-	ff	1c\	De-	ff	(1g/	De-	f	1ee\	De-	ff
=8	=8	=8	=8	=8	=8	=8	=8	=8	=8	=8	=8	=8	=8
2B\ 2BB\	2dd\ 2g#X\ 2e\	2B\	-us!	.	2e\	-us	.	4g#X/)	.	.	2dd\	-us	.
.	.	.	.	.	.	.	.	4g#/	-us	.	.	.	.
2r	2r	2r	.	.	2r	.	.	2r	.	.	2r	.	.
!	!	!LO:LB:g=original	!	!	!LO:LB:g=original	!	!	!LO:LB:g=original	!	!	!	!	!
=9	=9	=9	=9	=9	=9	=9	=9	=9	=9	=9	=9	=9	=9
!	!	!	!	!LO:DY:a	!	!	!LO:DY:rj:a	!	!	!LO:DY:a	!	!	!
2A\ 2AA\	2cc\ 2a\ 2e\	2A\	mi-	pp	2e\	mi-	pp	2a/	mi-	pp	2cc\	mi-	pp
!	!	!	!	!	!	!	!	!LO:SIC:l:s=se	!	!	!	!	!
2F\ 2FF\	2f/	2F\	-se-	.	2f\	-se-	.	2a/	-re-	.	2cc\	-se-	.
=10	=10	=10	=10	=10	=10	=10	=10	=10	=10	=10	=10	=10	=10
*	*^	*	*	*	*	*	*	*	*	*	*	*	*
!	!	!	!	!	!	!	!	!	!	!	!LO:DY:a	!	!	!
2d\ 2D\	2b/ 2a/	2f\	2D\	-re-	.	2f\	-re-	.	2a/	-re-	<	2b\	-re-	.
!	!	!	!	!	!LO:DY:a	!	!	!LO:HP:b	!	!	!	!	!	!
4e\ 4E\	2b/ 2a/	2ryy	(4E\	-re	<	4e\	-re	<	2a/	-re	[[	2b\	-re	.
4d\ 4D\	.	.	4F\)	.	[[	4d\	.	[[	.	.	.	.	.	.
!	!	!	!	!	!	!	!	!	!	!	!	!LO:LB:g=original	!	!
=11	=11	=11	=11	=11	=11	=11	=11	=11	=11	=11	=11	=11	=11	=11
!	!	!	!	!	!	!	!	!	!	!	!LO:DY:a	!	!	!
!	!	!	!	!	!LO:DY:a	!	!	!LO:HP:b	!	!	!LO:DY:rj:a	!	!	!
2.e\ 2.E\	2b/ 2a/	2a\	1E\	me-	>]	(2.e\	me-	>	2a/	me-	sfz >	1b\	me-	.
.	2b/ 2g#X/	2ryy	.	.	.	.	.	.	2g#X/	.	]]	.	.	.
4d\	.	.	.	.	.	4d\)	.	]]	.	.	.	.	.	.
*	*v	*v	*	*	*	*	*	*	*	*	*	*	*	*
!LO:LB:g=original	!	!	!	!	!	!	!	!	!	!	!	!	!
=12	=12	=12	=12	=12	=12	=12	=12	=12	=12	=12	=12	=12	=12
2E/ 2AA/	2a/ 2c/	2AA/	i!	.	2c\	-i	.	2a/	-i	.	2a/	-i	.
2r	2r	2r	.	.	2r	.	.	2r	.	.	2r	.	.
=13	=13	=13	=13	=13	=13	=13	=13	=13	=13	=13	=13	=13	=13
!	!	!	!	!	!	!	!LO:DY:a	!	!	!	!	!	!
4r	4r	4r	.	.	4r	.	ff	4r	.	.	4r	.	fz
!	!	!	!	!LO:DY:a	!	!	!	!	!	!LO:DY:a	!	!	!
4A\	4a/ 4e/ 4c/	4A\	se-	f	4c\	se-	.	4e/	se-	ff	4a/	se-	.
4G#X\	4b/ 4e/ 4d/	4G#X\	-cun-	.	4d\	-cun-	.	4e/	-cun-	.	4b\	-cun-	.
4Gn\	4cc#X/ 4a/ 4e/	4Gn\	-dum	.	4e\	-dum	.	4a/	-dum	.	4cc#X\	-dum	.
=14	=14	=14	=14	=14	=14	=14	=14	=14	=14	=14	=14	=14	=14
4F\	4dd/ 4a/ 4d/	4F\	ma-	.	4d\	ma-	.	4a/	ma-	.	4dd\	ma-	.
4A\	4cc#X/ 4e/	8A\	-gnam	.	8e\	-gnam	.	8a/	-gnam	.	8cc#X\	-gnam	.
.	.	8A\	se-	.	8e\	se-	.	8a/	se-	.	8cc#\	se-	.
!	!	!	!	!	!	!	!LO:DY:a	!	!	!	!	!	!
4F\	4dd/ 4a/ 4d/	4F\	-cun-	.	4d\	-cun-	f	4a/	-cun-	.	4dd\	-cun-	.
4c#X\ 4E\	4ee/ 4a/	4E\	-dum	.	4c#X\	-dum	.	4a/	-dum	.	4ee\	-dum	.
=15	=15	=15	=15	=15	=15	=15	=15	=15	=15	=15	=15	=15	=15
4d\ 4D\	4ff\ 4a\	4D\	ma-	.	4d\	ma-	.	4a/	ma-	.	4ff\	ma-	.
4c#X\ 4E\	4ee\ 4a\	4E\	-gnam	.	4c#X\	-gnam	.	4a/	-gnam	.	4ee\	-gnam	.
4F\	4dd/ 4a/ 4f/	4F\	ma-	.	4d\	ma-	.	4a/	/ma-	.	4dd\	ma-	.
!	!	!	!	!	!	!	!LO:DY:rj:a	!	!	!	!	!	!
4F#X\	4cc/ 4a/ 4e-X/	8F#X\	-gnam	.	8en\	-gnam	p	8a/	-gnam/	.	8cc\	-gnam	.
.	.	8F#\	mi-	.	8e\	mi-	.	8a/	mi-	.	8cc\	mi-	.
!	!	!LO:LB:g=original	!	!	!LO:LB:g=original	!	!	!LO:LB:g=original	!	!	!	!	!
=16	=16	=16	=16	=16	=16	=16	=16	=16	=16	=16	=16	=16	=16
4G\	4b/ 4g/ 4d/	4G\	-se-	.	4d\	-se-	.	4g/	-se-	.	4b\	-se-	.
4G#X\	4b/ 4f/ 4d/	4G#X\	-ri-	.	4d\	-ri-	.	4f/	-ri-	.	4b\	-ri-	.
4A\	4cc/ 4e/ 4c/	4A\	-cor-	.	4c\	-cor-	.	4e/	-cor-	.	4cc\	-cor-	.
4B\ 4Gn\	4ee/ 4e/	8Gn\	-di-	.	8B\	-di-	.	8e/	-di-	.	8ee\	-di-	.
.	.	8G\	-am	.	8B\	-am	.	8e/	-am	.	8ee\	-am	.
!LO:LB:g=original	!	!	!	!	!	!	!	!	!	!	!	!	!
=17	=17	=17	=17	=17	=17	=17	=17	=17	=17	=17	=17	=17	=17
*	*^	*	*	*	*	*	*	*	*	*	*	*	*
!	!	!	!	!	!	!	!	!LO:DY:a	!	!	!LO:DY:a	!	!	!
1A\ 1F\	1a/	4e\	1F\	tu-	.	1A\	tu-	>]	(>4e/	tu-	>	1a/	tu-	.
.	.	8d\L	.	.	.	.	.	.	8d/L	.	.	.	.	.
.	.	8c#X\J	.	.	.	.	.	.	8c#X/J	.	.	.	.	.
.	.	4d\	.	.	.	.	.	.	4d/	.	]	.	.	.
.	.	4d#X\	.	.	.	.	.	.	4d#X/	.	.	.	.	.
*	*v	*v	*	*	*	*	*	*	*	*	*	*	*	*
!	!	!	!	!	!	!	!	!	!	!	!LO:LB:g=original	!	!
=18	=18	=18	=18	=18	=18	=18	=18	=18	=18	=18	=18	=18	=18
2B\ 2E\	2g#X/ 2e/	2E\	-am	.	2B\	-am	.	2e/)	-am	.	2g#X/	-am	.
2r	2r	2r	.	.	2r	.	.	2r	.	.	2r	.	.
=19	=19	=19	=19	=19	=19	=19	=19	=19	=19	=19	=19	=19	=19
*^	*^	*	*	*	*	*	*	*	*	*	*	*	*
!	!	!	!	!	!	!LO:DY:rj:a	!	!	!LO:DY:rj:a	!	!	!LO:DY:a	!	!	!LO:DY:rj
1A/	2C\	1ee/	2.e\	2C/	mi-	pp	2A/	mi-	pp	2e/	mi-	pp	2ee\	mi-	pp
.	2C#X\	.	.	2C#X/	-se-	.	2A/	-se-	.	(4e/	-se-	.	2ee\	-se-	.
.	.	.	4g\	.	.	.	.	.	.	4g/)	.	.	.	.	.
=20	=20	=20	=20	=20	=20	=20	=20	=20	=20	=20	=20	=20	=20	=20	=20
!LO:N:vis=2.	!	!	!	!	!	!	!	!	!	!	!	!	!	!	!
2A/	1D\	4ee/	1f\	2D/	-re-	.	2.A/	-re-	.	2f/	-re-	.	(4ee\	-re-	.
.	.	4dd/	.	.	.	.	.	.	.	.	.	.	4dd\)	.	.
4B/	.	4cc/	.	2D/	-re	.	.	.	.	2f/	-re	.	(4cc\	-re	.
4ryy	.	4b/	.	.	.	.	4B/	-re	.	.	.	.	4b\)	.	.
*v	*v	*	*	*	*	*	*	*	*	*	*	*	*	*	*
=21	=21	=21	=21	=21	=21	=21	=21	=21	=21	=21	=21	=21	=21	=21
!	!	!	!	!	!	!	!	!	!LO:N:vis=2	!	!	!	!	!
2E\	1a/	1e\ 1c\	2E/	me-	.	(1c\	me-	.	[>1e/	me-	.	(>1a/	me-	.
4C\	.	.	(4C/	.	.	.	.	.	.	.	.	.	.	.
4AA\	.	.	4AA/	.	.	.	.	.	.	.	.	.	.	.
!LO:LB:g=original	!	!	!	!	!	!	!	!	!	!	!	!	!	!
=22	=22	=22	=22	=22	=22	=22	=22	=22	=22	=22	=22	=22	=22	=22
*^	*	*	*	*	*	*	*	*	*	*	*	*	*	*
2.B/	1E\	2a/	1e\	1E/ 1EE/)	.	.	(2.B\)	.	.	1e/]	.	.	2a/	.	.
.	.	2g#X/	.	.	.	.	.	.	.	.	.	.	2g#X/	.	.
4d/	.	.	.	.	.	.	4d\)	.	.	.	.	.	.	.	.
*	*	*v	*v	*	*	*	*	*	*	*	*	*	*	*	*
=23	=23	=23	=23	=23	=23	=23	=23	=23	=23	=23	=23	=23	=23	=23
2E/	2AA\	2a/ 2c/	2AA/	-i!	.	2c\	-i.	.	2e/	-i.	.	2a/)	-i.	.
2r	2r	2r	2r	.	.	2r	.	.	2r	.	.	2r	.	.
*v	*v	*	*	*	*	*	*	*	*	*	*	*	*	*
==	==	==	==	==	==	==	==	==	==	==	==	==	==
*-	*-	*-	*-	*-	*-	*-	*-	*-	*-	*-	*-	*-	*-
!!!system-decoration: [(s1,s2,s3,s4)][(s5,s6)]
!!!RDF**kern: > = above
!!!RDF**kern: < = below
!!!EED: Leszek Kubiak
!!!EST: 2021-01-02
!!!ENC:Krzysztof Stępień
!!!END:2020-12-31
